X:447
%%etbk:tnset id:137,pos:1,rep:3x,ant:
%%etbk:video src:ytube,cde:M49G2pljqeM,desc:
%%etbk:pldat 2016-01-26T18:16,2015-04-22T16:21,2015-04-06T17:07,2015-02-10T18:14,2015-01-28T17:38,2014-12-17T18:40,2014-12-07T10:18,2014-09-21T11:50,2014-05-19T19:01,2014-05-14T15:51,2014-05-09T19:02,2014-05-06T15:40,2014-03-27T18:48,2014-03-21T17:06,2014-03-13T18:53,2014-02-26T19:02,2014-02-25T19:56,2013-11-25T20:04,2013-10-02T16:53,2013-09-12T18:04,2013-09-11T19:23,2013-08-29T17:04,2013-05-07T18:30,2013-05-05T15:27
T: New Land, The
Z: Piano Box Version by Martin Fleischmann
H: Created 2013-02-19 /  Last Modified 2013-02-19
M: 3/4
L: 1/8
R: waltz
K: Dmaj
!1!A,B,!3!C|: "D"!1!D4DE | !3!F!4!A3!5!B2 | !4!A3!3!FE2 | !1!D3E !3!(3FED | "G"!3!G3F!1!EF | !3!G!5!!4!B3!5!d2 | !4!B3!2!G!1!E2 | "A"!2!E3E !3!(3FED | 
"D"!3!F3!1!D!3!F!1!D | !2!F2!3!A2!5!!3!d2 | !5!f3e!3!d2 | "G"!2!B3!3!c!1!de | "D"!3!f3e!1!d2 | "A"!5!e!3!c3!1!A2 | "bm"!2!B4 Bc |[1 !2!B3!1!A!3!F!2!E:|[2 !2!B3!3!c!4!d!5!e||
|: "D"!4!f3!3!ef!5!g  | !4!f2e2!2!d2 | "G"!1!G4GA | !1!G2!2!B2!3!d2 | "A"!4!e3!3!de!5!f |  !4!e2d2!2!c2 | "D"!1!F4FG | !1!F2!2!A2!3!c2 |
 "bm"!4!d3!3!cd!5!e | !4!d2!3!c2!2!B2 | "em"!1!E4EF | !1!E2!2!D2!1!B,2 | "D"!5!A!3!F3!1!D2 | "A"!5!E!3!C3!1!A,2 | "bm"!2!B,6-|1 B,3!3!c!4!d!5!e:|2 B,3 !1!A,B,!3!C||


